dist/svgs/core-ui-icons/brand/cib-docker.svg

<svg xmlns="http://www.w3.org/2000/svg" width="32" height="32" viewBox="0 0 32 32">
  <path d="M6.427 23.031c-0.911 0-1.739-0.744-1.739-1.651s0.744-1.656 1.739-1.656c1 0 1.751 0.745 1.751 1.656 0 0.907-0.833 1.651-1.745 1.651zM27.776 14.016c-0.183-1.323-1-2.401-2.079-3.224l-0.421-0.333-0.339 0.411c-0.656 0.745-0.921 2.068-0.839 3.057 0.079 0.751 0.317 1.495 0.74 2.073-0.344 0.177-0.76 0.333-1.084 0.505-0.76 0.249-1.5 0.333-2.239 0.333h-21.385l-0.084 0.489c-0.156 1.579 0.084 3.229 0.751 4.724l0.328 0.579v0.077c2 3.313 5.557 4.803 9.437 4.803 7.459 0 13.573-3.224 16.473-10.177 1.901 0.083 3.819-0.412 4.719-2.235l0.24-0.411-0.396-0.251c-1.083-0.661-2.563-0.749-3.801-0.416l-0.027 0.005zM17.099 12.693h-3.239v3.228h3.239zM17.099 8.636h-3.239v3.228h3.239zM17.099 4.495h-3.239v3.229h3.239zM21.057 12.693h-3.219v3.228h3.229v-3.228zM9.063 12.693h-3.219v3.228h3.229v-3.228zM13.099 12.693h-3.197v3.228h3.219v-3.228zM5.063 12.693h-3.199v3.228h3.24v-3.228zM13.099 8.636h-3.197v3.228h3.219v-3.224zM9.041 8.636h-3.192v3.228h3.219v-3.224l-0.021-0.004z"/>
</svg>

<svg xmlns="http://www.w3.org/2000/svg" viewBox="0 0 32 32"><path d="M6.427 23.031c-.911 0-1.739-.744-1.739-1.651s.744-1.656 1.739-1.656c1 0 1.751.745 1.751 1.656 0 .907-.833 1.651-1.745 1.651zm21.349-9.015c-.183-1.323-1-2.401-2.079-3.224l-.421-.333-.339.411c-.656.745-.921 2.068-.839 3.057.079.751.317 1.495.74 2.073-.344.177-.76.333-1.084.505-.76.249-1.5.333-2.239.333H.13l-.084.489a9.388 9.388 0 00.751 4.724l.328.579v.077c2 3.313 5.557 4.803 9.437 4.803 7.459 0 13.573-3.224 16.473-10.177 1.901.083 3.819-.412 4.719-2.235l.24-.411-.396-.251c-1.083-.661-2.563-.749-3.801-.416l-.027.005zm-10.677-1.323H13.86v3.228h3.239zm0-4.057H13.86v3.228h3.239zm0-4.141H13.86v3.229h3.239zm3.958 8.198h-3.219v3.228h3.229v-3.228zm-11.994 0H5.844v3.228h3.229v-3.228zm4.036 0H9.902v3.228h3.219v-3.228zm-8.036 0H1.864v3.228h3.24v-3.228zm8.036-4.057H9.902v3.228h3.219V8.64zm-4.058 0H5.849v3.228h3.219V8.64l-.021-.004z"/></svg>
